src/svg/logo.svg

<svg fill="none" height="39" viewBox="0 0 306 39" width="306" xmlns="http://www.w3.org/2000/svg"><g fill="#1300ed"><path d="m10.1333 38.5175 2.3148-5.0263h15.7915l2.3662 5.0263h10.1333l-18.1577-38.4662123h-4.578l-18.0034 38.4662123zm10.2362-22.0027 3.9094 8.4626h-7.8701z"/><path d="m78.3814 38.5175v-38.4662123h-10.1333v18.1560123l-18.2606-18.1560123h-4.115v38.4662123h10.1333v-18.2074l18.2091 18.2074z"/><path d="m102.269 17.8483v6.7701h7.459c-1.595 2.3079-4.424 3.7953-7.459 3.7953-4.732 0-9.1043-3.8466-9.1043-9.1293s4.2694-9.1293 9.1043-9.1293c2.624 0 4.784 1.0257 6.43 2.5644l7.15-7.07779c-3.498-3.43631-8.282-5.5904223-13.58-5.5904223-10.6474 0-19.2376 8.6164323-19.2376 19.2331123 0 10.6167 8.5902 19.2331 19.2376 19.2331 10.648 0 19.29-8.6164 19.29-19.2331v-1.4361z"/><path d="m136.227.0512877h-10.184v23.2849123c0 8.4625 6.738 15.1813 15.225 15.1813 8.385 0 15.226-6.7188 15.226-15.1813v-23.2849123h-10.185v23.1310123c0 2.7696-2.263 5.0262-5.041 5.0262-2.777 0-5.041-2.2566-5.041-5.0262z"/><path d="m187.368 11.8476c0-6.56491-5.298-11.7963123-11.882-11.7963123s-11.831 5.2826923-11.831 11.8476123c0 6.5649 5.247 11.7963 11.831 11.7963 1.594 0 2.932 1.3335 2.932 2.9234s-1.338 2.8721-2.932 2.8721c-1.595 0-2.881-1.2822-2.881-2.9234h-9.002c0 6.7701 5.299 11.9502 11.883 11.9502s11.882-5.2314 11.882-11.7963c0-2.8209-.926-5.3853-2.572-7.4368-2.161-2.7696-5.555-4.5647-9.31-4.5647-1.595 0-2.881-1.2822-2.881-2.8721s1.286-2.92344 2.881-2.92344c1.594 0 2.932 1.33354 2.932 2.92344z"/><path d="m193.738 10.0525h10.031v28.465h10.133v-28.465h10.236v-10.0525h-30.4z"/><path d="m231.079 38.5175h10.133v-38.4662123h-10.133z"/><path d="m256.525 38.5175 2.314-5.0263h15.792l2.366 5.0263h10.133l-18.157-38.4662123h-4.578l-18.004 38.4662123zm10.236-22.0027 3.909 8.4626h-7.87z"/><circle cx="299.58" cy="32.0979" r="6.41958"/></g></svg>

<svg width="306" height="39" viewBox="0 0 306 39" fill="none" xmlns="http://www.w3.org/2000/svg">
<path d="M10.1333 38.5175L12.4481 33.4912H28.2396L30.6058 38.5175H40.7391L22.5814 0.0512877H18.0034L0 38.5175H10.1333ZM20.3695 16.5148L24.2789 24.9774H16.4088L20.3695 16.5148Z" fill="#1300ED"/>
<path d="M78.3814 38.5175V0.0512877H68.2481V18.2073L49.9875 0.0512877H45.8725V38.5175H56.0058V20.3101L74.2149 38.5175H78.3814Z" fill="#1300ED"/>
<path d="M102.269 17.8483V24.6184H109.728C108.133 26.9263 105.304 28.4137 102.269 28.4137C97.537 28.4137 93.1647 24.5671 93.1647 19.2844C93.1647 14.0017 97.4341 10.1551 102.269 10.1551C104.893 10.1551 107.053 11.1808 108.699 12.7195L115.849 5.64171C112.351 2.2054 107.567 0.0512877 102.269 0.0512877C91.6216 0.0512877 83.0314 8.66772 83.0314 19.2844C83.0314 29.9011 91.6216 38.5175 102.269 38.5175C112.917 38.5175 121.559 29.9011 121.559 19.2844V17.8483H102.269Z" fill="#1300ED"/>
<path d="M136.227 0.0512877H126.043V23.3362C126.043 31.7987 132.781 38.5175 141.268 38.5175C149.653 38.5175 156.494 31.7987 156.494 23.3362V0.0512877H146.309V23.1823C146.309 25.9519 144.046 28.2085 141.268 28.2085C138.491 28.2085 136.227 25.9519 136.227 23.1823V0.0512877Z" fill="#1300ED"/>
<path d="M187.368 11.8476C187.368 5.28269 182.07 0.0512877 175.486 0.0512877C168.902 0.0512877 163.655 5.33398 163.655 11.8989C163.655 18.4638 168.902 23.6952 175.486 23.6952C177.08 23.6952 178.418 25.0287 178.418 26.6186C178.418 28.2085 177.08 29.4907 175.486 29.4907C173.891 29.4907 172.605 28.2085 172.605 26.5673H163.603C163.603 33.3374 168.902 38.5175 175.486 38.5175C182.07 38.5175 187.368 33.2861 187.368 26.7212C187.368 23.9003 186.442 21.3359 184.796 19.2844C182.635 16.5148 179.241 14.7197 175.486 14.7197C173.891 14.7197 172.605 13.4375 172.605 11.8476C172.605 10.2577 173.891 8.92416 175.486 8.92416C177.08 8.92416 178.418 10.2577 178.418 11.8476H187.368Z" fill="#1300ED"/>
<path d="M193.738 10.0525H203.769V38.5175H213.902V10.0525H224.138V0H193.738V10.0525Z" fill="#1300ED"/>
<path d="M231.079 38.5175H241.212V0.0512877H231.079V38.5175Z" fill="#1300ED"/>
<path d="M256.525 38.5175L258.839 33.4912H274.631L276.997 38.5175H287.13L268.973 0.0512877H264.395L246.391 38.5175H256.525ZM266.761 16.5148L270.67 24.9774H262.8L266.761 16.5148Z" fill="#1300ED"/>
<circle cx="299.58" cy="32.0979" r="6.41958" fill="#1300ED"/>
</svg>
